packages/astro-components-stencil/src/icons/save.svg

<svg xmlns="http://www.w3.org/2000/svg" viewBox="0 0 24 24"><g xmlns="http://www.w3.org/2000/svg" id="save" fill-rule="nonzero">
            <path d="M17.59 3.59c-.38-.38-.89-.59-1.42-.59H5a2 2 0 00-2 2v14c0 1.1.9 2 2 2h14c1.1 0 2-.9 2-2V7.83c0-.53-.21-1.04-.59-1.41l-2.82-2.83zM12 19c-1.66 0-3-1.34-3-3s1.34-3 3-3 3 1.34 3 3-1.34 3-3 3zm1-10H7c-1.1 0-2-.9-2-2s.9-2 2-2h6c1.1 0 2 .9 2 2s-.9 2-2 2z"/>
        </g></svg>

<svg width="24" height="24" viewBox="0 0 24 24" fill="none" xmlns="http://www.w3.org/2000/svg">
<path fill-rule="evenodd" clip-rule="evenodd" d="M17.59 3.59C17.21 3.21 16.7 3 16.17 3H5C3.89 3 3 3.9 3 5V19C3 20.1 3.9 21 5 21H19C20.1 21 21 20.1 21 19V7.83C21 7.3 20.79 6.79 20.41 6.42L17.59 3.59ZM12 19C10.34 19 9 17.66 9 16C9 14.34 10.34 13 12 13C13.66 13 15 14.34 15 16C15 17.66 13.66 19 12 19ZM7 9H13C14.1 9 15 8.1 15 7C15 5.9 14.1 5 13 5H7C5.9 5 5 5.9 5 7C5 8.1 5.9 9 7 9Z" fill="black"/>
</svg>
